X: 1
T: Mrs Adie
C: Major William Logan
R: strathspey
Z: 2017 John Chambers <jc:trillian.mit.edu>
N: Combined from several other settings.
B: Athole Collection, 1884, p.279.
B: Carlin (The Gow Collection), 1986, #171.
B: Cole (1000 Fiddle Tunes), 1940, p.124.
B: MacDonald (The Skye Collection), 1887, p.125.
M: 4/4
L: 1/8
K: Bb
F |\
"Bb"B<B (3BAB "F7"c>B A<F | "Gm"B<B "C7"c>B "F7"A<F "Bb7"F>_A |\
"Eb"G<G B>G "Bb"F>D B,>D | "Eb"E<G "F7"F>E "Bb"D<B, B, :|
B |\
"Bb"d>B f>B g>B f>B | "F"A/B/c c>B A<F F2 |\
"Eb"G<G B>G "Bb"F>D B,>D | "Eb"E<G F>E "Bb"D<B, B, |]
B |\
"Bb"d>B f>B b>B f>B | "C7"A/B/c c>B "F7"A<F "Bb7"F>_A |\
"Eb"G<E E>G "Bb"F<D D>F | "Cm"E>C "F7"C>F "Bb"D<B, B, |]
